icons/address.svg

<svg width="25" height="24" viewBox="0 0 25 24" fill="none" xmlns="http://www.w3.org/2000/svg">
<path d="M11.4771 7C11.4771 6.44772 11.9248 6 12.4771 6H12.9771C13.5294 6 13.9771 6.44772 13.9771 7C13.9771 7.55228 13.5294 8 12.9771 8H12.4771C11.9248 8 11.4771 7.55228 11.4771 7Z" fill="#9AA1B4"/>
<path d="M14.9771 7C14.9771 6.44772 15.4248 6 15.9771 6H16.4771C17.0294 6 17.4771 6.44772 17.4771 7C17.4771 7.55228 17.0294 8 16.4771 8H15.9771C15.4248 8 14.9771 7.55228 14.9771 7Z" fill="#9AA1B4"/>
<path d="M11.4771 10.5C11.4771 9.94772 11.9248 9.5 12.4771 9.5H12.9771C13.5294 9.5 13.9771 9.94772 13.9771 10.5C13.9771 11.0523 13.5294 11.5 12.9771 11.5H12.4771C11.9248 11.5 11.4771 11.0523 11.4771 10.5Z" fill="#9AA1B4"/>
<path d="M14.9771 10.5C14.9771 9.94772 15.4248 9.5 15.9771 9.5H16.4771C17.0294 9.5 17.4771 9.94772 17.4771 10.5C17.4771 11.0523 17.0294 11.5 16.4771 11.5H15.9771C15.4248 11.5 14.9771 11.0523 14.9771 10.5Z" fill="#9AA1B4"/>
<path d="M14.9771 14C14.9771 13.4477 15.4248 13 15.9771 13H16.4771C17.0294 13 17.4771 13.4477 17.4771 14C17.4771 14.5523 17.0294 15 16.4771 15H15.9771C15.4248 15 14.9771 14.5523 14.9771 14Z" fill="#9AA1B4"/>
<path fill-rule="evenodd" clip-rule="evenodd" d="M8.9771 2.5C8.42481 2.5 7.9771 2.94772 7.9771 3.5V12C7.7604 12 7.54371 12.0702 7.36316 12.2106L2.86316 15.7106C2.42721 16.0497 2.34867 16.678 2.68774 17.1139C2.99826 17.5132 3.55132 17.6127 3.9771 17.3662V20.5C3.9771 21.0523 4.42481 21.5 4.9771 21.5H19.9771C20.5294 21.5 20.9771 21.0523 20.9771 20.5V3.5C20.9771 2.94772 20.5294 2.5 19.9771 2.5H8.9771ZM11.9771 19.5H18.9771V4.5H9.9771V13.2887L13.091 15.7106C13.527 16.0497 13.6055 16.678 13.2664 17.1139C12.9559 17.5132 12.4029 17.6127 11.9771 17.3662V19.5ZM9.9771 19.5V15.8224L7.9771 14.2669L5.9771 15.8224V19.5H9.9771Z" fill="#9AA1B4"/>
</svg>

<?xml version="1.0" encoding="utf-8"?>
<!-- Generator: Adobe Illustrator 22.1.0, SVG Export Plug-In . SVG Version: 6.00 Build 0)  -->
<svg version="1.1" id="Layer_1" xmlns="http://www.w3.org/2000/svg" xmlns:xlink="http://www.w3.org/1999/xlink" x="0px" y="0px"
	 viewBox="0 0 25 24" style="enable-background:new 0 0 25 24;" xml:space="preserve">
<style type="text/css">
	.st0{fill:#9AA1B4;}
</style>
<path class="st0" d="M11.5,7c0-0.6,0.4-1,1-1H13c0.6,0,1,0.4,1,1s-0.4,1-1,1h-0.5C11.9,8,11.5,7.6,11.5,7z"/>
<path class="st0" d="M15,7c0-0.6,0.4-1,1-1h0.5c0.6,0,1,0.4,1,1s-0.4,1-1,1H16C15.4,8,15,7.6,15,7z"/>
<path class="st0" d="M11.5,10.5c0-0.6,0.4-1,1-1H13c0.6,0,1,0.4,1,1c0,0.6-0.4,1-1,1h-0.5C11.9,11.5,11.5,11.1,11.5,10.5z"/>
<path class="st0" d="M15,10.5c0-0.6,0.4-1,1-1h0.5c0.6,0,1,0.4,1,1c0,0.6-0.4,1-1,1H16C15.4,11.5,15,11.1,15,10.5z"/>
<path class="st0" d="M15,14c0-0.6,0.4-1,1-1h0.5c0.6,0,1,0.4,1,1s-0.4,1-1,1H16C15.4,15,15,14.6,15,14z"/>
<path class="st0" d="M20,2.5H9c-0.6,0-1,0.4-1,1V12c-0.2,0-0.4,0.1-0.6,0.2l-4.5,3.5c-0.4,0.3-0.5,1-0.2,1.4C3,17.5,3.6,17.6,4,17.4
	v3.1c0,0.6,0.4,1,1,1h15c0.6,0,1-0.4,1-1v-17C21,2.9,20.5,2.5,20,2.5z M10,19.5H6v-3.7l2-1.6l2,1.6V19.5z M19,19.5h-7v-2.1
	c0.4,0.2,1,0.1,1.3-0.3c0.3-0.4,0.3-1.1-0.2-1.4L10,13.3V4.5h9V19.5z"/>
</svg>
